res/skins/LateNight/palemoon/buttons/btn__spinbox_down.svg

<?xml version="1.0" encoding="UTF-8" standalone="no"?>
<svg
   xmlns:dc="http://purl.org/dc/elements/1.1/"
   xmlns:cc="http://creativecommons.org/ns#"
   xmlns:rdf="http://www.w3.org/1999/02/22-rdf-syntax-ns#"
   xmlns:svg="http://www.w3.org/2000/svg"
   xmlns="http://www.w3.org/2000/svg"
   width="18"
   height="11"
   version="1.1"
   id="svg21">
  <metadata
     id="metadata25">
    <rdf:RDF>
      <cc:Work
         rdf:about="">
        <dc:format>image/svg+xml</dc:format>
        <dc:type
           rdf:resource="http://purl.org/dc/dcmitype/StillImage" />
        <dc:title></dc:title>
      </cc:Work>
    </rdf:RDF>
  </metadata>
  <defs
     id="defs9">
    <linearGradient
       id="a"
       x1="2"
       x2="24"
       y1="12"
       y2="12"
       gradientTransform="matrix(1,0,0,1.6956521,-13.50003,-38.152173)"
       gradientUnits="userSpaceOnUse">
      <stop
         stop-opacity=".0047619"
         offset="0"
         id="stop2" />
      <stop
         stop-opacity="0"
         offset=".5"
         id="stop4" />
      <stop
         stop-opacity=".47451"
         offset="1"
         id="stop6" />
    </linearGradient>
  </defs>
  <rect
     rx="2"
     y="-57.983498"
     x="-18.352602"
     height="38.627037"
     width="49.521614"
     id="rect840"
     style="fill:#1a1a1a;stroke:#000000;stroke-width:1.5;stroke-linecap:round;stroke-linejoin:round" />
  <rect
     y="8.8817842e-16"
     x="40"
     height="11"
     width="18"
     id="rect1027"
     style="opacity:1;fill:#ac0606;fill-opacity:0.73544976;stroke:none;stroke-width:3.30481243;stroke-linecap:round;stroke-linejoin:round;stroke-miterlimit:4;stroke-dasharray:none;stroke-opacity:1" />
  <path
     style="fill:none;stroke:#000001;stroke-width:1.6;stroke-miterlimit:4;stroke-dasharray:none;stroke-linejoin:round"
     d="m 9.0000514,7.9999994 -3.4641426,-6 h 6.9281992 z"
     id="path15" />
  <path
     style="fill:#918273;fill-opacity:1;stroke-width:0.85714287"
     d="m 9.0000514,7.9999994 -3.4641426,-6 h 6.9281992 z"
     id="path17" />
  <path
     id="rect15-9"
     d="M -0.19921876,-12 C -0.63377006,-12 -1,-11.63377 -1,-11.199219 V 11.199219 C -1,11.63377 -0.63376996,12 -0.19921876,12 H 18.203219 C 18.63777,12 19.004,11.63377 19.004,11.199219 V -11.199219 C 19.004,-11.63377 18.63777,-12 18.203219,-12 Z M 1,-11 h 16.004 c 0.562649,0 1,0.437351 1,1.0000004 V 10 c 0,0.562649 -0.437351,1 -1,1 H 1 C 0.4373514,11 0,10.562649 0,10 V -9.9999996 C 0,-10.562649 0.4373514,-11 1,-11 Z"
     style="color:#000000;font-style:normal;font-variant:normal;font-weight:normal;font-stretch:normal;font-size:medium;line-height:normal;font-family:sans-serif;font-variant-ligatures:normal;font-variant-position:normal;font-variant-caps:normal;font-variant-numeric:normal;font-variant-alternates:normal;font-feature-settings:normal;text-indent:0;text-align:start;text-decoration:none;text-decoration-line:none;text-decoration-style:solid;text-decoration-color:#000000;letter-spacing:normal;word-spacing:normal;text-transform:none;writing-mode:lr-tb;direction:ltr;text-orientation:mixed;dominant-baseline:auto;baseline-shift:baseline;text-anchor:start;white-space:normal;shape-padding:0;clip-rule:nonzero;display:inline;overflow:visible;visibility:visible;opacity:1;isolation:auto;mix-blend-mode:normal;color-interpolation:sRGB;color-interpolation-filters:linearRGB;solid-color:#000000;solid-opacity:1;vector-effect:none;fill:#000001;fill-opacity:1;fill-rule:nonzero;stroke:none;stroke-width:1;stroke-linecap:round;stroke-linejoin:round;stroke-miterlimit:4;stroke-dasharray:none;stroke-dashoffset:0;stroke-opacity:1;paint-order:fill markers stroke;color-rendering:auto;image-rendering:auto;shape-rendering:auto;text-rendering:auto;enable-background:accumulate" />
  <path
     id="rect15-3-7-1"
     d="m 0.99989845,-11 c -0.5626486,0 -1,0.437352 -1,1.0000002 v 0.5 H 1.1073204 c 0.1500777,-0.293496 0.4469066,-0.5 0.8007811,-0.5 l 14.1876015,2e-7 c 0.353874,0 0.650703,0.206504 0.800781,0.5 h 1.107422 v -0.5 c 0,-0.5626484 -0.437351,-1.0000004 -1,-1.0000004 z"
     style="color:#000000;font-style:normal;font-variant:normal;font-weight:normal;font-stretch:normal;font-size:medium;line-height:normal;font-family:sans-serif;font-variant-ligatures:normal;font-variant-position:normal;font-variant-caps:normal;font-variant-numeric:normal;font-variant-alternates:normal;font-feature-settings:normal;text-indent:0;text-align:start;text-decoration:none;text-decoration-line:none;text-decoration-style:solid;text-decoration-color:#000000;letter-spacing:normal;word-spacing:normal;text-transform:none;writing-mode:lr-tb;direction:ltr;text-orientation:mixed;dominant-baseline:auto;baseline-shift:baseline;text-anchor:start;white-space:normal;shape-padding:0;clip-rule:nonzero;display:inline;overflow:visible;visibility:visible;opacity:1;isolation:auto;mix-blend-mode:normal;color-interpolation:sRGB;color-interpolation-filters:linearRGB;solid-color:#000000;solid-opacity:1;vector-effect:none;fill:#dcdcdc;fill-opacity:0.07058824;fill-rule:nonzero;stroke:none;stroke-width:1;stroke-linecap:round;stroke-linejoin:round;stroke-miterlimit:4;stroke-dasharray:none;stroke-dashoffset:0;stroke-opacity:1;paint-order:fill markers stroke;color-rendering:auto;image-rendering:auto;shape-rendering:auto;text-rendering:auto;enable-background:accumulate" />
  <path
     id="rect15-3-7-9"
     d="M 0.99989845,11 V 9.091797 C 0.99989845,9.595433 1.4044651,10 1.9081015,10 H 16.095703 c 0.503636,0 0.908203,-0.404567 0.908203,-0.908203 V 3.5605474 -9.4999996 h 1 V 10 c 0,0.562648 -0.437351,1 -1,1 z"
     style="color:#000000;font-style:normal;font-variant:normal;font-weight:normal;font-stretch:normal;font-size:medium;line-height:normal;font-family:sans-serif;font-variant-ligatures:normal;font-variant-position:normal;font-variant-caps:normal;font-variant-numeric:normal;font-variant-alternates:normal;font-feature-settings:normal;text-indent:0;text-align:start;text-decoration:none;text-decoration-line:none;text-decoration-style:solid;text-decoration-color:#000000;letter-spacing:normal;word-spacing:normal;text-transform:none;writing-mode:lr-tb;direction:ltr;text-orientation:mixed;dominant-baseline:auto;baseline-shift:baseline;text-anchor:start;white-space:normal;shape-padding:0;clip-rule:nonzero;display:inline;overflow:visible;visibility:visible;opacity:1;isolation:auto;mix-blend-mode:normal;color-interpolation:sRGB;color-interpolation-filters:linearRGB;solid-color:#000000;solid-opacity:1;vector-effect:none;fill:#d1d1d1;fill-opacity:0.0196078;fill-rule:nonzero;stroke:none;stroke-width:1;stroke-linecap:round;stroke-linejoin:round;stroke-miterlimit:4;stroke-dasharray:none;stroke-dashoffset:0;stroke-opacity:1;paint-order:fill markers stroke;color-rendering:auto;image-rendering:auto;shape-rendering:auto;text-rendering:auto;enable-background:accumulate" />
  <path
     style="color:#000000;font-style:normal;font-variant:normal;font-weight:normal;font-stretch:normal;font-size:medium;line-height:normal;font-family:sans-serif;font-variant-ligatures:normal;font-variant-position:normal;font-variant-caps:normal;font-variant-numeric:normal;font-variant-alternates:normal;font-feature-settings:normal;text-indent:0;text-align:start;text-decoration:none;text-decoration-line:none;text-decoration-style:solid;text-decoration-color:#000000;letter-spacing:normal;word-spacing:normal;text-transform:none;writing-mode:lr-tb;direction:ltr;text-orientation:mixed;dominant-baseline:auto;baseline-shift:baseline;text-anchor:start;white-space:normal;shape-padding:0;clip-rule:nonzero;display:inline;overflow:visible;visibility:visible;opacity:1;isolation:auto;mix-blend-mode:normal;color-interpolation:sRGB;color-interpolation-filters:linearRGB;solid-color:#000000;solid-opacity:1;vector-effect:none;fill:#d1d1d1;fill-opacity:0.06;fill-rule:nonzero;stroke:none;stroke-width:1;stroke-linecap:round;stroke-linejoin:round;stroke-miterlimit:4;stroke-dasharray:none;stroke-dashoffset:0;stroke-opacity:1;paint-order:fill markers stroke;color-rendering:auto;image-rendering:auto;shape-rendering:auto;text-rendering:auto;enable-background:accumulate"
     d="m 0.99989845,11 c -0.5626486,0 -1,-0.437352 -1,-1 V -9.5 h 1 v 13.060547 5.53125 z"
     id="rect15-3-7-9-3" />
</svg>

<svg width="18" height="11" version="1.1" xmlns="http://www.w3.org/2000/svg">
  <rect x="-18.3526" y="-57.9835" width="49.5216" height="38.627" rx="2" fill="#1a1a1a" stroke="#000" stroke-linecap="round" stroke-linejoin="round" stroke-width="1.5"/>
  <rect x="40" y="8.88178e-16" width="18" height="11" fill="#ac0606" fill-opacity=".73545"/>
  <path d="m9.00005 8-3.46414-6h6.9282z" fill="none" stroke="#000001" stroke-linejoin="round" stroke-width="1.6"/>
  <path d="m9.00005 8-3.46414-6h6.9282z" fill="#918273" stroke-width=".857143"/>
  <path d="m-0.199219-12c-0.434551 0-0.800781 0.36623-0.800781 0.800781v22.3984c0 0.434551 0.36623 0.800781 0.800781 0.800781h18.4024c0.434551 0 0.800781-0.36623 0.800781-0.800781v-22.3984c0-0.434551-0.36623-0.800781-0.800781-0.800781zm1.19922 1h16.004c0.562649 0 1 0.437351 1 1v20c0 0.562649-0.437351 1-1 1h-16.004c-0.562649 0-1-0.437351-1-1v-20c0-0.562649 0.437351-1 1-1z" color="#000000" color-rendering="auto" dominant-baseline="auto" fill="#000001" image-rendering="auto" shape-rendering="auto" solid-color="#000000" style="font-feature-settings:normal;font-variant-alternates:normal;font-variant-caps:normal;font-variant-ligatures:normal;font-variant-numeric:normal;font-variant-position:normal;isolation:auto;mix-blend-mode:normal;paint-order:fill markers stroke;shape-padding:0;text-decoration-color:#000000;text-decoration-line:none;text-decoration-style:solid;text-indent:0;text-orientation:mixed;text-transform:none;white-space:normal"/>
  <path d="m0.999898-11c-0.562649 0-1 0.437352-1 1v0.5h1.10742c0.150078-0.293496 0.446907-0.5 0.800781-0.5l14.1876 2e-7c0.353874 0 0.650703 0.206504 0.800781 0.5h1.10742v-0.5c0-0.562648-0.437351-1-1-1z" color="#000000" color-rendering="auto" dominant-baseline="auto" fill="#dcdcdc" fill-opacity=".0705882" image-rendering="auto" shape-rendering="auto" solid-color="#000000" style="font-feature-settings:normal;font-variant-alternates:normal;font-variant-caps:normal;font-variant-ligatures:normal;font-variant-numeric:normal;font-variant-position:normal;isolation:auto;mix-blend-mode:normal;paint-order:fill markers stroke;shape-padding:0;text-decoration-color:#000000;text-decoration-line:none;text-decoration-style:solid;text-indent:0;text-orientation:mixed;text-transform:none;white-space:normal"/>
  <path d="m0.999898 11v-1.9082c0 0.503636 0.404567 0.908203 0.908203 0.908203h14.1876c0.503636 0 0.908203-0.404567 0.908203-0.908203v-18.5918h1v19.5c0 0.562648-0.437351 1-1 1z" color="#000000" color-rendering="auto" dominant-baseline="auto" fill="#d1d1d1" fill-opacity=".0196078" image-rendering="auto" shape-rendering="auto" solid-color="#000000" style="font-feature-settings:normal;font-variant-alternates:normal;font-variant-caps:normal;font-variant-ligatures:normal;font-variant-numeric:normal;font-variant-position:normal;isolation:auto;mix-blend-mode:normal;paint-order:fill markers stroke;shape-padding:0;text-decoration-color:#000000;text-decoration-line:none;text-decoration-style:solid;text-indent:0;text-orientation:mixed;text-transform:none;white-space:normal"/>
  <path d="m0.999898 11c-0.562649 0-1-0.437352-1-1v-19.5h1v18.5918z" color="#000000" color-rendering="auto" dominant-baseline="auto" fill="#d1d1d1" fill-opacity=".06" image-rendering="auto" shape-rendering="auto" solid-color="#000000" style="font-feature-settings:normal;font-variant-alternates:normal;font-variant-caps:normal;font-variant-ligatures:normal;font-variant-numeric:normal;font-variant-position:normal;isolation:auto;mix-blend-mode:normal;paint-order:fill markers stroke;shape-padding:0;text-decoration-color:#000000;text-decoration-line:none;text-decoration-style:solid;text-indent:0;text-orientation:mixed;text-transform:none;white-space:normal"/>
</svg>
